X:1
T:Babylon is Falling
M:4/4
L:1/8
K:D
 F3/2 F/2 A3/2 F/2 D2 A,2| B,3/2 C/2 D3/2 E/2 D2 C2| A,3/2 B,/2 D3/2 E/2F/2 F3/2 E3/2 D/2|\
 D6 z2| F3/2 F/2 A3/2 F/2 D2 A,2| B,3/2 C/2 D3/2 E/2 D2 B,2| A,3/2 A,/2 D3/2 E/2 F3/2 F/2 E3/2 E/2|\
 D6 z F| A2 F2 A2 z2| F3/2 E/2 D3/2 F/2 E2 z F| A2 F2 A2 z2| F3/2 E/2 D3/2 F/2 E2 z2|\
 F3/2 F/2 A3/2 F/2 D2 A,2| B,3/2 C/2 D3/2 E/2 D2 B,3/2 A,/2| A,3/2 A,/2 D3/2 E/2 F3/2 F/2 E3/2 E/2|\
 D4 z4|
